source/img/sprite/social-vk.svg

<svg width="15" height="15" viewBox="0 0 15 15" fill="none" xmlns="http://www.w3.org/2000/svg">
<path d="M8.72271 9.05176C9.16539 8.90867 9.73216 9.99638 10.3355 10.4127C10.7884 10.728 11.1352 10.6599 11.1352 10.6599L12.7434 10.6368C12.7434 10.6368 13.5838 10.5849 13.1865 9.9172C13.1536 9.86163 12.9536 9.4222 11.9895 8.51786C10.9815 7.57185 11.1181 7.72512 12.3317 6.08962C13.0712 5.09267 13.3671 4.48376 13.2745 4.22445C13.1856 3.97486 12.6424 4.03969 12.6424 4.03969L10.8305 4.05219C10.6541 4.05265 10.5045 4.10729 10.4365 4.29066C10.4351 4.29252 10.1489 5.06211 9.76735 5.7164C8.96118 7.10046 8.63936 7.17408 8.506 7.08749C8.19992 6.88699 8.27725 6.28317 8.27725 5.85392C8.27725 4.51246 8.47729 3.9531 7.88551 3.80863C7.68779 3.76047 7.54332 3.72898 7.03905 3.72435C6.39449 3.71463 5.84716 3.72435 5.53692 3.8767C5.33086 3.97996 5.17296 4.20639 5.26881 4.21935C5.3892 4.23556 5.65916 4.29344 5.80363 4.4907C5.98932 4.74631 5.98376 5.3191 5.98376 5.3191C5.98376 5.3191 6.0898 6.89857 5.73371 7.09444C5.48922 7.22872 5.1549 6.9546 4.43578 5.69788C4.06858 5.05516 3.79121 4.34484 3.79121 4.34484C3.79121 4.34484 3.7375 4.21287 3.64026 4.14063C3.52449 4.05497 3.36243 4.02765 3.36243 4.02765L1.64265 4.03876C1.64265 4.03876 1.38427 4.04617 1.28935 4.16008C1.20507 4.26103 1.2824 4.4694 1.2824 4.4694C1.2824 4.4694 2.62942 7.65566 4.15471 9.26059C5.55312 10.734 7.14231 10.6363 7.14231 10.6363H7.86236C7.86236 10.6363 8.07953 10.6113 8.19066 10.4918C8.29439 10.3807 8.28976 10.1719 8.28976 10.1719C8.28976 10.1719 8.2754 9.1953 8.72271 9.05176Z" fill="#030A1A"/>
</svg>

<svg width="15" height="15" viewBox="0 0 15 15" fill="none" xmlns="http://www.w3.org/2000/svg">
  <path d="M8.723 9.052c.442-.143 1.01.944 1.612 1.36.453.316.8.248.8.248l1.608-.023s.84-.052.444-.72c-.033-.055-.233-.495-1.197-1.4-1.008-.945-.872-.792.342-2.427.74-.997 1.035-1.606.942-1.866-.088-.25-.632-.184-.632-.184l-1.811.012c-.177 0-.326.055-.394.239-.002.002-.288.771-.67 1.425C8.961 7.1 8.64 7.174 8.506 7.087c-.306-.2-.229-.804-.229-1.233 0-1.342.2-1.9-.391-2.045-.198-.049-.343-.08-.847-.085-.645-.01-1.192 0-1.502.153-.206.103-.364.33-.268.342.12.017.39.074.535.272.185.255.18.828.18.828s.106 1.58-.25 1.775c-.245.135-.58-.14-1.298-1.396-.367-.643-.645-1.353-.645-1.353s-.054-.132-.15-.204c-.117-.086-.279-.113-.279-.113l-1.72.01s-.258.008-.353.122c-.084.101-.007.31-.007.31S2.63 7.655 4.155 9.26c1.398 1.474 2.987 1.376 2.987 1.376h.72s.218-.025.329-.144c.103-.111.099-.32.099-.32s-.015-.977.433-1.12Z" fill="#030A1A"/>
</svg>
